raw/symbols/ftm.svg

<svg width="42" height="42" viewBox="0 0 42 42" fill="none" xmlns="http://www.w3.org/2000/svg">
<circle cx="21" cy="21" r="21" fill="#26B6EA"/>
<path fill-rule="evenodd" clip-rule="evenodd" d="M22.166 8.23228L28.7978 11.6391C29.0493 11.763 29.2379 11.9488 29.3636 12.1346V29.8499C29.2693 30.0357 29.0807 30.2216 28.8293 30.3454L22.1974 33.7522C21.8831 33.9071 21.4745 34 21.0973 34C20.6887 34 20.3116 33.9071 19.9973 33.7522L13.3654 30.3454C13.1139 30.2216 12.9253 30.0357 12.8311 29.8499V12.1346C12.9253 11.9488 13.1139 11.763 13.3654 11.6391L19.9658 8.23228C20.5944 7.92257 21.5374 7.92257 22.166 8.23228ZM13.8376 12.4143L20.3752 9.00753C20.7524 8.82171 21.381 8.82171 21.7582 9.00753L28.2958 12.4143C28.3586 12.4453 28.39 12.4762 28.4215 12.5072C28.39 12.5382 28.3586 12.5692 28.2958 12.6001L21.7582 16.0069C21.381 16.1928 20.7524 16.1928 20.3752 16.0069L13.8376 12.6001C13.7748 12.5692 13.7433 12.5382 13.7119 12.5072C13.7433 12.4763 13.7748 12.4453 13.8376 12.4143ZM13.7119 13.4717V19.8207L19.8095 16.6307L13.7119 13.4717ZM22.3545 16.6522L28.452 13.4932V19.8422L22.3545 16.6522ZM20.6267 17.2188C20.5324 17.2497 20.4381 17.2807 20.3752 17.3117L13.8376 20.6875C13.7748 20.7184 13.7434 20.7494 13.712 20.7803C13.7434 20.8113 13.7748 20.8423 13.8376 20.8733L20.3752 24.2801C20.4224 24.2956 20.4617 24.3111 20.5009 24.3265C20.5402 24.342 20.5795 24.3575 20.6267 24.373V17.2188ZM21.501 17.2188V24.373C21.5953 24.373 21.6896 24.342 21.7524 24.3111L28.29 20.9043C28.3529 20.8733 28.3843 20.8423 28.4157 20.8114C28.3843 20.7804 28.3529 20.7494 28.29 20.7184L21.7524 17.3117C21.7053 17.2962 21.6661 17.2807 21.6268 17.2652C21.5876 17.2498 21.5481 17.2342 21.501 17.2188ZM13.7119 21.8018L19.998 25.0537C20.0295 25.0692 20.0688 25.0847 20.1081 25.1002C20.1473 25.1156 20.1866 25.1311 20.2181 25.1466C20.1866 25.1621 20.1473 25.1776 20.1081 25.1931C20.0688 25.2085 20.0295 25.224 19.998 25.2395L13.7119 28.4914V21.8018ZM28.4524 21.8018L22.1663 25.0537C22.1183 25.101 22.0519 25.1302 21.9953 25.1552C21.9777 25.1629 21.9611 25.1703 21.9463 25.1776C21.9777 25.1931 22.017 25.2085 22.0563 25.224C22.0956 25.2395 22.1349 25.255 22.1663 25.2705L28.4524 28.5224V21.8018ZM21.7582 33.0167L28.2958 29.6099C28.3586 29.579 28.39 29.548 28.4214 29.5171C28.39 29.4861 28.3586 29.455 28.2958 29.4241L21.7582 26.0173C21.381 25.8315 20.7524 25.8315 20.3752 26.0173L13.8376 29.4241C13.7748 29.4551 13.7433 29.486 13.7119 29.517C13.7433 29.548 13.7748 29.5789 13.8376 29.6099L20.3752 33.0167C20.7524 33.2025 21.381 33.2025 21.7582 33.0167Z" fill="#F3F3F3"/>
<path d="M30.0515 9.25697L29.8944 9.16406L29.4229 9.90736L29.58 10.0003C30.7431 10.6816 31.1203 10.8984 31.1203 12.5089H32.0004C32.0004 10.4339 31.2774 10.0003 30.0515 9.25697Z" fill="#F3F3F3"/>
<path d="M10.8806 29.2012H10.0005C10.0005 31.2762 10.7549 31.7098 11.9494 32.4531L12.1066 32.546L12.5781 31.8027L12.4209 31.7098C11.2578 31.0284 10.8806 30.7807 10.8806 29.2012Z" fill="#F3F3F3"/>
</svg>

<svg xmlns="http://www.w3.org/2000/svg" width="42" height="42" fill="none"><circle cx="21" cy="21" r="21" fill="#26B6EA"/><path fill="#F3F3F3" fill-rule="evenodd" d="m22.166 8.232 6.632 3.407c.251.124.44.31.566.496V29.85a1.185 1.185 0 0 1-.535.495l-6.632 3.407a2.6 2.6 0 0 1-1.1.248c-.408 0-.785-.093-1.1-.248l-6.632-3.407a1.184 1.184 0 0 1-.534-.495V12.135c.094-.186.283-.372.534-.496l6.6-3.407c.63-.31 1.572-.31 2.201 0Zm-8.328 4.182 6.537-3.406c.377-.186 1.006-.186 1.383 0l6.538 3.406a.435.435 0 0 1 .126.093c-.032.031-.063.062-.126.093l-6.538 3.407c-.377.186-1.006.186-1.383 0L13.838 12.6a.432.432 0 0 1-.126-.093c.031-.03.063-.062.126-.093Zm-.126 1.058v6.349l6.098-3.19-6.098-3.16Zm8.643 3.18 6.097-3.159v6.35l-6.098-3.19Zm-1.728.567a2.17 2.17 0 0 0-.252.093l-6.537 3.375c-.063.031-.095.062-.126.093.031.031.063.062.126.093l6.537 3.407c.047.016.087.031.126.046.04.016.078.032.126.047v-7.154Zm.874 0v7.154a.6.6 0 0 0 .251-.062l6.538-3.407c.063-.03.094-.062.126-.093-.032-.03-.063-.062-.126-.093l-6.538-3.406c-.047-.016-.086-.031-.125-.047-.04-.015-.079-.03-.126-.046Zm-7.79 4.583 6.287 3.252c.031.015.07.03.11.046.04.016.079.031.11.047-.031.015-.07.03-.11.046-.04.015-.079.031-.11.046l-6.286 3.252v-6.69Zm14.741 0-6.286 3.252c-.048.047-.114.076-.17.101a1.207 1.207 0 0 0-.05.023c.032.015.071.03.11.046.04.015.079.031.11.046l6.286 3.252v-6.72Zm-6.694 11.215 6.538-3.407c.063-.031.094-.062.125-.093-.031-.03-.062-.062-.125-.093l-6.538-3.407c-.377-.186-1.006-.186-1.383 0l-6.537 3.407a.434.434 0 0 0-.126.093.434.434 0 0 0 .126.093l6.537 3.407c.377.185 1.006.185 1.383 0Z" clip-rule="evenodd"/><path fill="#F3F3F3" d="m30.052 9.257-.158-.093-.471.743.157.093c1.163.682 1.54.898 1.54 2.509H32c0-2.075-.723-2.509-1.948-3.252ZM10.88 29.201H10c0 2.075.755 2.509 1.95 3.252l.157.093.471-.743-.157-.093c-1.163-.682-1.54-.93-1.54-2.509Z"/></svg>
